app/assets/images/icons/dit_assenyala.svg

<?xml version="1.0" encoding="utf-8"?>
<!-- Generator: Adobe Illustrator 16.0.0, SVG Export Plug-In . SVG Version: 6.00 Build 0)  -->
<!DOCTYPE svg PUBLIC "-//W3C//DTD SVG 1.1//EN" "http://www.w3.org/Graphics/SVG/1.1/DTD/svg11.dtd">
<svg version="1.1" id="Capa_1" xmlns="http://www.w3.org/2000/svg" xmlns:xlink="http://www.w3.org/1999/xlink" x="0px" y="0px"
	 width="100px" height="72px" viewBox="0 0 100 72" enable-background="new 0 0 100 72" xml:space="preserve">
<path fill="#FBEEDE" d="M92.613,17.678H48.792l5.216-2.375c3.775-1.719,5.443-6.174,3.725-9.95
	c-1.717-3.775-6.174-5.443-9.949-3.725l-19.816,9.021c-2.025,0.921-2.798,2.391-4.05,4.599c0,0-3.204,5.864-4.444,9.008H4.174
	c-1.928,0-3.491,1.45-3.491,3.239v34.936c0,1.789,1.562,3.238,3.491,3.238h20.747c1.574,2.4,4.436,5.281,9.284,5.281
	c3.817,0,11.655-0.09,18.906-0.188c0.221,0.027,0.441,0.068,0.672,0.068h11.91c3.107,0,5.629-2.52,5.629-5.627
	c0-3.109-2.521-5.627-5.629-5.627h-0.492V58.74h6.266c3.553,0,6.432-2.879,6.432-6.434c0-3.553-2.879-6.432-6.432-6.432h-6.266
	v-0.748h6.355c4,0,7.248-3.246,7.248-7.25c0-4.003-3.248-7.248-7.248-7.248h-6.355v-0.814h27.412c3.355,0,6.07-2.718,6.07-6.068
	C98.684,20.395,95.969,17.678,92.613,17.678z"/>
</svg>

<svg xmlns="http://www.w3.org/2000/svg" width="100" height="72" viewBox="0 0 100 72"><path fill="#FBEEDE" d="M92.613 17.678h-43.82l5.215-2.375a7.513 7.513 0 0 0-6.224-13.675l-19.816 9.02c-2.025.922-2.798 2.392-4.05 4.6 0 0-3.204 5.864-4.444 9.008h-15.3c-1.928 0-3.49 1.45-3.49 3.24V62.43c0 1.79 1.56 3.24 3.49 3.24H24.92c1.575 2.4 4.437 5.28 9.285 5.28 3.817 0 11.655-.09 18.906-.188.222.027.442.068.673.068h11.91a5.628 5.628 0 0 0 0-11.254H65.2v-.836h6.267a6.432 6.432 0 0 0 6.432-6.434 6.43 6.43 0 0 0-6.433-6.432H65.2v-.748h6.356a7.25 7.25 0 0 0 0-14.498H65.2v-.814h27.413a6.068 6.068 0 1 0 0-12.136z"/></svg>
